X:1
T:Tonari no Totoro
T:Tonari no Totoro
T:Joe Hisaishi
T:Arranged by Coline Rogue
T:Arranged by Coline Rogue
T:Arranged by Coline Rogue
T:Arranged by Coline Rogue
T:Arranged by Coline Rogue
T:Arranged by Coline Rogue
T:Arranged by Coline Rogue
C:Joe Hisaishi
Z:Arranged by Coline Rogue
%%score 1 { ( 2 4 ) | 3 }
L:1/8
Q:1/4=120
M:4/4
K:F
V:1 treble nm="Voice"
V:2 treble nm="Piano"
V:4 treble 
V:3 treble 
V:1
"^Animated and lively" z8 | z8 |"_To  -" c z"_to -" A"_ro" F z"^To  -" c z"_to    -" B- | %3
 B"_ro" G z2 z4 |"_To   -" B z"_to -" G"_ro" E z"_To   -" B z"_to   -" A- | %5
"^-" A"_ro" F z2 z z z z | z8 | z8 | z8 | z8 |: z2"^Da  -" F2"_re  -" E2"_ka" F"_ga____" C- | %11
 C4 z4 | z2"_Kos" (F2"_-" E2)"_so-" F"_ri_" A- |"___" A4 z4 | %14
"_Ko -" B2"_mi -" A2"_chi" G2"^ni" F"_ko__" B- | B2"^no" A2"_mi" G2"_u  -" F2 | %16
"^zu    -" F3"_me-" G"_te" G4 | z8 | z2"_Chii -" F2"_sa -" E2"_na" F"_me" C- |"___" C4 z4 | %20
 z2"_Ha  -" F2"_e  -" E2"_ta-" F"^ra___" c- | c4 z4 | %22
"_Hi-" B"_mi-" B"^tsu" B"_no" B"_an   -" (BA)"_go_____" (GB-) | B4 z"_Mo-" G"_ri" A"_e" B | %24
"^no" A2"_pa    -" A2"_su-" A"_po -" (G"_o -"F)"_to___" A- | A4 z4 | %26
"^Su   -" D2"_te   -" E2"^ki   -" F2"_na" G"_bo   -" D- | %27
 D"_u  -" D"_ken" E2"_Ha -" F"_ji -" G"_ma -" F"_ru_" c- |"_______" c8 | %29
 z4"_To-" F"_na -" G"_ri" A"_no" B ||"^To   -" c z"_to -" A"_ro" F z"^To   -" c z"_to   -" B- | %31
 B"^ro" G z2 z4 |"_To   -" B z"_to -" G"_ro" E z"_To   -" B z"_to    -" A- | A"^ro" F z2 z4 | %34
 z2"_Mo  -" _D2"_ri" F2"^no" B2 |"_na   -" A2"_ka" c"_ni__" F- F3"_Mu -" A | %36
"_ka-" B"_shi" A"_ka-" B"_ra" A"_sun  -" (BA)"_de-" F"_ru______" G- | %37
 !breath!.G4"_To-" F"_na-" G"_ri" A"^no" B || %38
"_To   -" c z"^to -" A"_ro" F z"^To   -" c z"_to    -" B- | B"^ro" G z2 z4 | %40
"_To   -" B z"_to -" G"^ro" E z"_To   -" B z"_to    -" A- | A"^ro" F z2 z4 | %42
"_Ko  -" D2"_do  -" d2"_mo" c"^no" B"_to-" A"_ki" B |"_ni" c3"^da-" F"_ke" F2 z"^A -" A | %44
"_na-" B"^ta" A"^ni" F"_o -" B"_to-" A"_zu-" F"^re -" d"_ru_____" c- | c4 z4 | %46
 z2"_Fu-" C"_shi-" C"_gi-" B"_na" A"_de-" G"_a  -" A |"_i" F4 z4 | z8 | z8 | z8 | z8 | z8 | z8 | %54
 z8 | z8 | z8 | z2"_A -" F2"_me" E2"^fu-" F"_ri_____" C- | C4 z4 | %59
 z2"_Ba  -" F2"_su" E2"_te-" F"_i_" A- |"____" A4 z4 | %61
"_Zu -" B2"_bu -" A2"_nu -" G2"^re" F"_O    -" B- | B2"_ba  -" A2"_ke" G2"_ga" F2 | %63
"_i     -" F3"^ta-" G"^ra" G4 | z8 | z2"^A  -" F2"_na -" E2"_ta" F"_no_" C- |"_____" C4 z4 | %67
 z2"_A  -" F2"_ma -" E2"_ga-" F"_sa_____" c- | c4 z4 | %69
"_Sa-" B"_shi-" B"_te" B2"_a -" B"_ge-" A"_ma-" G"_sho____" B- | B4 z"_Mo-" G"_ri" A"_e" B | %71
"^no" A2"_pa  -" A2"_su-" A"_po-" (G"_o-"F)"_to______" A- | A4 z4 | %73
"_Ma -" D2"_ho  -" E2"_u" F2"_no" G"_to    -" D- | %74
 D"_bi-" D"_ra" !breath!E2"_A -" F"_ki-" G"_ma-" F"_su______" c- | c8 | %76
 z4"_To-" F"_na -" G"_ri" A"^no" B |"_To  -" c z"_to -" A"_ro" F z"^To  -" c z"_to    -" B- | %78
 B"_ro" G z2 z4 |"_To   -" B z"_to -" G"_ro" E z"_To   -" B z"_to -" A- |"^-" A"^ro" F z2 z4 | %81
 z2"_Tsu  -" _D2"^ki  -" F2"_yo" B2 |"_no" A"_ban" (Ac)"_ni" F- F3"^O -" A | %83
"_ka -" B"_ri-" A"_na" B"_fu   -" B- B"_i -" A"_te -" F"_ru_" G- | %84
"^__" !breath!.G4"_To-" F"^na-" G"_ri" A"_no" B | %85
"_To  -" c z"^to-" A"_ro" F z"_To  -" c z"^to   -" B- | B"^ro" G z2 z4 | %87
"_To   -" B z"^to -" G"^ro" E z"_To   -" B z"^to -" A- |"^-" A"^ro" F z2 z4 | %89
"_Mo -" D2"_shi -" d2"_mo" c"_a-" B"_e -" A"_ta" B |"^na     -" c4"^ra" F2 z"_Su -" A | %91
"_te -" B"_ki-" A"_na" F"_Shi-" B"_a -" A"^wa-" F"_se" d"^ga______" c- | c4 z4 | %93
 z2"_A-" C"_na-" C"^ta" B"_ni" A"_ku-" G"_ru" A |"^wa" F4 z4 | z8 | %96
[K:Gb]"^To -" d z"_to-" B"^ro" G z"_To -" d z"^to -" c- |"^-" c"^ro" A z2 z4 | %98
"^To  -" c z"^to -" A"_ro" F z"_To  -" c z"^to    -" B- | B"^ro" G z2 z4 | %100
 z2"_Mo  -" __E2"^ri" G2"^no" c2 |"_na  -" B2"^ka" d"_ni__" G- G2 z"_Mu -" B | %102
"_ka-" c"_shi" B"_ka-" c"_ra" B"^sun  -" (cB)"_de-" G"^ru______" A- | %103
 !breath!.A4"_To-" G"_na-" A"^ri" B"^no" c |"_To  -" d z"_to-" B"^ro" G z"_To  -" d z"^to -" c- | %105
"^-" c"^ro" A z2 z4 |"^To  -" c z"_to-" A"^ro" F z"^To  -" c z"^to   -" B- | B"^ro" G z2 z4 | %108
"_Ko  -" E2"^do  -" e2"_mo" d"_no" c"_to-" B"^ki" c |"^ni" d3"_da-" G"_ke" G2 z"^A -" B | %110
"_na -" c"_ta" B"_ni" G"_o -" c"^to -" B"_zu-" G"^re -" e"_ru______" d- | d4 z4 | %112
 z2"^Fu-" D"^shi-" D"_gi-" c"_na" B"_de -" A"_a -" B |"_-  i" G4 z4 | z8 | z8 | z8 | z8 | z8 | %119
 z8[Q:1/4=100] | z8 |[Q:1/4=60] z8[Q:1/4=120] | z8 |] %123
V:2
 z2 f[gc'] [fa]c' z f' | z2 f[gc'] [fa]c' z f' | !arpeggio![gac']2 af- f c'2 [eb]- | %3
 [eb] g3 z!8va(! c'{/b'} c''2!8va)! | !arpeggio![ceb]2 ge- e [^cb]2 [=ca]- | %5
 [ca] f3 c/d/e/f/ g/a/b/c'/ | [fd']4- [fd']{/e'f'}e'c'b | [egc']4 z d'ba | b4 z [Bd][df][gb] | %9
 [gb][FBd][FBd] z B/A/G/F/ E/D/C/ z/ |: z2 [Af]2 [Ge]2 [Af][Ac]- | [Ac]8 | %12
 z2 [Af]2 [Ae]2 [Af][cea]- | [cea]4 z4 | [dfb]2 a2 g2 f[_df-b-] | [dfb]2 a2 g2 f2 | %16
 [=Bdf]3 [Bdg] [_Bdg]4 | !arpeggio![GBdf]3 e/d/ [ce]4 | z2 [Af]2 [Ae]2 [Af][Gc-] | %19
 [Gc]3 B3{/d} [eg]f/e/ | [df]2 [Af]2 [Ge]2 [Af][_egc']- | [egc']2 G2 z2 A2 | %22
 [dfb]bb[db] bag[_dfb] | [DFB]4 z [Gg][Aa][Bb] | [ca]2 [ca]2 [ca]gfa- | a4 A4 | %26
 [FBd]2 e2 f2 g[Bd]- | [Bd]d e2 fgf[fgbc']- | [fgbc']4 x4 | c'4 fgab || %30
 [Ac] z [FA][CF] z [Ac] z [GB]- | [GB] z z2 z4 | [GB] z [EG][CE] z [GB] z [FA]- | [FA][DF] z2 z4 | %34
 z2 _D2 [DF]2 [DFB]2 | [CFA]2 c[DF]- [DF] z2 A | [DFB]ABA BAF[B,DFG]- | [B,DFG]4 FGAB || %38
 [Ac] z [FA][CF] z [Ac] z [GB]- | [GB] z z2 z4 | [GB] z [EG][CE] z [GB] z [FA]- | [FA][DF] z2 z4 | %42
 d2 d'2 [egc']bab | [egc']2 z f [Adf] z2 a | [dfb]af[dfb] afd'[dfbc']- | [dfbc']4 z2 f/g/a/b/ | %46
 [dfbc']/ z/ z CC [DFB]AGA | [A,CF]4 gfc[dfb]- | [dfb]af[GBc]- [GBc]4 | z2 [Af]2 [Ge]2 [Af][Ec]- | %50
 [Ec] [Ec]2!8va(! g' g'2 f'e'!8va)! | f/e/f [Af]2 [Ge]2 [Af][ca]- | %52
 [ca]4!8va(!{/g'} [a'c'']g'f'c'!8va)! | bagf [Beg]4 | !arpeggio![cea]gfe [Adf]4 | %55
 [Bg](3f/g/f/ ed c2 B2 | !arpeggio![FBdf]8 | z2 [A,F]2 [A,E]2 [A,F][A,C-] | %58
 C3{/g} [ac']- [ac'][gc'][fc']g | [fc']2 F2 E2 F[CA]- | [CA]3 e/f/ c'4 | [DB]2 A2 G2 F[_DFB]- | %62
 [DFB]2 A2 G2 F2 | [B,DF]3 G G4 | [GBdf]3 g [Beg]4 | z2 F2 E2 FC- | C2 c2 !arpeggio![Gcg]2 fe | %67
 [Af]2 F2 E2 Fc | c2 c2 !arpeggio![c^fc']2 ba | BBBB BAGB- | B4 z GAB | [CA]2 A2 AGFA- | A8 | %73
 D2 E2 F2 GD- | DD E2 FGF[FGBc]- | [FGBc]6 z B | z4 fgab | [cfc']2 af- f c'2 b- | bg- g6 | %79
 [ceb]2 ge- e [^ceb]2 a- | a f2 [fd']- [fd'](3c'/d'/c'/ ba | b2 _d2 [df]2 [=db]2 | %82
 [cfa]ac'[df]- [df]3 a | [dfb]a[dfb][dfb]- [dfb]afg- | g4 fgab | [cfc']2 af- f c'2 [egb]- | %86
 [egb]g- g6 | [ceb]2 ge- e [^ceb]2 [da]- | [da]f- f6 | d2 d'2 [ec']bab | [ec']4 f4 | %91
 [db]af[db] af[fd'][fgc']- | [fgc']3 [Fd] [Ge][Bg][ca][db] | [egc']2 cc baga | %94
 f4{/g} [ac']/g/f [gc']<a | z4{/_e'} [f'_a']/e'/_d' [e'f'a']<e' | %96
[K:Gb] [dd']2 bg- g [dd']2 [fc']- | [fc'][fa]- [fa]6 | [dfc']2 af- f [=dfc']2 [eb]- | %99
 [eb] g2!8va(! !arpeggio![be'g']- [be'g'](3f'/g'/f'/ e'd'!8va)! | c2 __e2 [eg]2 [ec']2 | %101
 [dgb]bd'[eg]- [eg]3 b | [ec']b[ec']b [ec']bg[ea]- | [ea]4 gabc' | [dd']2 bg- g d'2 [fc']- | %105
 [fc'] [fa]3!8va(!{/e'} [f'a']/e'/d' [e'a']<f'!8va)! | [dfc']2 af- f [=dfc']2 [Beb]- | %107
 [Beb] g2!8va(! !arpeggio![be'g']- [be'g'](3f'/g'/f'/ e'd'!8va)! | [Ec]2 e'2 [fad']c'bc' | %109
 [dd']3 g g3 b | [ec']bg[ec'] bge'[gad']- | [gad']4 z2 g/a/b/c'/ | [gad']3 d [ec']bab | %113
 d2 BG- G d2 c- | cA- A6 | c2 AF- F c2 [GB]- | [GB] G3 z abc' | %117
 !arpeggio![egc'e']4- [egc'e']!arpeggio![faf'][dd'][cc'] | [dd']4 z !arpeggio![egbe'][cc'][Bb] | %119
 [cc']4 z [ce][eg][ac'] | [ac'][Gce] [Gce]6 |!8va(!{/c''a'g'e'} d'!8va)![EG] [EG]6 | %122
 !arpeggio!!fermata![A,B,DG]8 |] %123
V:3
 Fc z2 z [Acd]F[Acd] | Fc z2 z [Acd]F[Acd] |[K:bass] F,3 F,- F,4 | C,3 C,- C,2 G,2 | C,3 C, ^C,4 | %5
 D,3 D,- D,2 =C,2 | B,,B,B,,B, B,,B,B,,B, | A,,A,A,,A, D,DD,D | G,,G,G,,G, G,,G,G,,G, | %9
 C,,C,C,,C, C,,C,C,,C, |: F,A,CF G A3 | E,CDE G4 | D,A,DF A4 | C,A,CF A4 | B,,F,B,C D4 | %15
 B,,F,B,C D4 | C,G,CD F4 | C,,C,F,G, C,E,G,C | F,A,CF G A3 | E,G,CE G4 | D,A,DF F4 | %21
 C,G,_EG, D,A,^FA, | G,,G,G,,G, G,,G,G,,G, | B,,B,B,,B, B,,B,B,,B, | F,,F,F,,F, F,,F,F,,F, | %25
 D,,D,D,,D, D,,D,D,,D, | B,,,B,,B,,,B,, B,,,B,,B,,,B,, | B,,,B,,B,,,B,, B,,,B,,B,,,B,, | %28
 C,G, B,[K:treble] C/[I:staff -1]c/[I:staff +1] D/[I:staff -1]d/[I:staff +1]F/[I:staff -1]f/[I:staff +1] G/[I:staff -1]g/[I:staff +1]B/[I:staff -1]b/ | %29
[I:staff +1][K:bass] z [C,G,] [C,G,]6 || F,CFC GCFC | C,G,CG, DG,CG, | C,G,CG, ^C,G,^CG, | %33
 D,A,DA, EA,DA, | B,,F,B,F, CF,B,F, | F,A,CF D,A,DA, |[K:treble] G,DBD BDBD | %37
[K:bass] C,G,CG, DG,CG, || F,CFC GCFC | C,G,CG, DG,CG, | C,G,CG, ^C,G,^CG, | D,A,DA, EA,FA, | %42
 B,,F,B,F, C,G,B,G, | A,,E,CE, D,A,FA, | B,,F,B,F, B,F,B,[C,B,]- | [C,B,]C,B,D F z z2 | %46
 [C,,C,] z z [C,,C,]4 z | z8 | z8 | F,A,CF- F4 | E,G,B,C[K:treble] DEGc |[K:bass] D,F,A,D- D4 | %52
 C,F,A,C[K:treble] EFAc |[K:bass] B,,F,B,C B,,G,CE, | A,,E,A,E, D,F,A,D | G,B,DF- F4 | [C,B,]8 | %57
 F,,C,F,G, A,4 | E,,C,E,G, C4 | D,,D,F,A,- A,4 | C,,C,F,A, C4 | B,,F,B,C D4 | A,,F,B,C _D4 | %63
 C,,C,F,G, B,3 G, | C,G, B,2 C,4 | F,,C,F,G, A,4 | E,,C,E,G, C4 | D,,D,F,A,- A,4 | %68
 C,,C,_E,G, D,^F, A,2 | G,,D,G,B, D4 | B,,F,B,C _D4 | F,,C,F,G, A,4 | D,,D,^F,A, C4 | %73
 B,,D,F,B,- B,4 | B,,D,F,B,- B,4 | C,,C,F,G, B,DFD | z [C,B,] [C,B,]6 | F,,C,F,C, G,C,F,C, | %78
 C,G,CG, DG,CG, | C,G,CG, ^C,G,^CG, | D,A,DA, EA,DA, | B,,F,B,F, _DF,B,F, | A,,F,A,F, D,A,DA, | %83
 G,,D,B,D, B,D,B,D, | C,F,B,F, C,G,B,G, | F,,C,F,C, G,C,F,C, | C,G,CG, DG,CG, | C,G,CG, ^C,G,^CG, | %88
 D,A,DA, EA,DA, | B,,F,DF, B,,G,[CE]G, | A,,E,G,E, D,A,DA, | %91
 [B,,B,]2 F,[B,,B,]- [B,,B,]F,[B,,B,][C,B,]- | [C,B,]C, B,6 | [C,B,]8 | F,,C,F,C, G,E,F,C, | %95
 _D,_A,_DA, _EA,DA, |[K:Gb] G,,D,G,D, A,D,G,D, | D,A,DA, EA,DA, | D,A,DA, =D,A,=DA, | %99
 E,B,EB, FB,EB, | C,G,CG, __EG,CG, | B,,G,DG, E,B,GB, | A,,E,CE, CE,CE, | D,A,CA, D,F,A,C | %104
 G,B,DG G,B,DG | D,F,A,D[K:treble] FAdA |[K:bass] D,F,A,D =D,F,A,=D | E,G,B,E[K:treble] FGBE | %108
[K:bass] C,G,CG, C,F,A,F, | B,,F,DF, E,B,GB, | [C,C]2 G,[C,C]- [C,C] G,2 [D,C]- | %111
 [D,C][D,C] [D,C]6 | [D,,D,] z z [D,,D,]4 z |[K:treble] G8 | D4- DE F2 | D4 =D4 | E8 | %117
[K:bass] C,G,CG, C,G,CG, | B,,F,A,F, E,B,G,B, | A,,E,A,B, [A,C]4 | z [D,D] [D,D]6 | %121
 z [D,A,C] [D,A,C]6 | !fermata![G,,D,]8 |] %123
V:4
 x8 | x8 | x8 | x5!8va(! x3!8va)! | x8 | x8 | x8 | x8 | x8 | x8 |: x8 | x8 | x8 | x8 | x8 | x8 | %16
 x8 | x8 | x8 | x8 | x8 | x8 | x8 | x8 | x8 | x8 | x8 | x8 | x8 | z [FGBc] [FGBc]6 || x8 | x8 | %32
 x8 | x8 | x8 | x8 | x8 | x8 || x8 | x8 | x8 | x8 | x8 | x8 | x8 | x8 | x8 | x8 | x8 | x8 | %50
 x3!8va(! x5!8va)! | x8 | x4!8va(! x4!8va)! | x8 | x8 | x8 | x8 | x8 | x8 | x8 | x8 | x8 | x8 | %63
 x8 | x8 | x8 | x8 | x8 | x8 | b4 z4 | x8 | x8 | x8 | x8 | x8 | x8 | z [FGBc] [FGBc]6 | x8 | x8 | %79
 x8 | x8 | x8 | x8 | x8 | x8 | x8 | x8 | x8 | x8 | x8 | x8 | x8 | x8 | x8 | x8 | x8 |[K:Gb] x8 | %97
 x8 | x8 | x3!8va(! x5!8va)! | x8 | x8 | x8 | x8 | x8 | x4!8va(! x4!8va)! | x8 | %107
 x3!8va(! x5!8va)! | x8 | x8 | x8 | x8 | x8 | g4 x4 | x8 | x8 | x8 | x8 | x8 | x8 | x8 | %121
!8va(! x!8va)! x7 | x8 |] %123

